src/assets/images/atlanta.svg

<svg width="127" height="61" viewBox="0 0 127 61" fill="none" xmlns="http://www.w3.org/2000/svg">
<g clip-path="url(#clip0)">
<path d="M126.939 0.275635H0.0585938V60.6707H126.939V0.275635Z" fill="#3B3B3B"/>
<path d="M126.939 0.275635H0.0585938V60.6707H126.939V0.275635Z" stroke="#1B1918" stroke-width="0.4252"/>
<path fill-rule="evenodd" clip-rule="evenodd" d="M32.6959 36.479L31.1498 38.8115L29.5953 36.479H28.6973V40.9612H29.6664V38.1953L30.8628 40.0017H31.4255L32.622 38.2038V40.964H33.5911V36.4818H32.6959V36.479ZM43.1115 36.479V40.9612H46.3399V40.1171H44.0806V39.1182H46.1041V38.2797H44.0806V37.3259H46.3002V36.479H43.1115ZM56.6192 38.1447V37.3456H58.9808V36.4818H55.6501V40.964H57.6167C57.7957 40.964 57.9691 40.9527 58.1396 40.9246C58.3073 40.8964 58.4664 40.8514 58.6114 40.7895C58.7563 40.7276 58.8842 40.6404 58.995 40.5335C59.1059 40.4266 59.1911 40.2915 59.2536 40.1311C59.3162 39.9707 59.3474 39.7794 59.3474 39.5571C59.3474 39.3377 59.3162 39.1463 59.2536 38.986C59.194 38.8256 59.1059 38.6905 58.995 38.5836C58.8842 38.4767 58.7563 38.3895 58.6114 38.3276C58.4636 38.2629 58.3073 38.2178 58.1396 38.1897C57.9691 38.1616 57.7957 38.1475 57.6167 38.1503H56.6192V38.1447ZM56.6192 40.1171V38.9916H57.6224C57.719 38.9916 57.8099 38.9972 57.898 39.0113C57.9861 39.0254 58.0657 39.0535 58.1339 39.0929C58.2021 39.1323 58.259 39.1886 58.2959 39.2645C58.3357 39.3377 58.3584 39.4362 58.3584 39.5543C58.3584 39.6753 58.3357 39.771 58.2959 39.8469C58.2561 39.9229 58.2021 39.9792 58.1339 40.0186C58.0657 40.058 57.9861 40.0833 57.898 40.1002C57.8099 40.1142 57.719 40.1199 57.6224 40.1199H56.6192V40.1171ZM68.561 36.479V40.9612H71.7894V40.1171H69.5329V39.1182H71.5563V38.2797H69.5329V37.3259H71.7524V36.479H68.561ZM81.8981 36.479C81.8811 36.7069 81.8669 36.9376 81.8498 37.174C81.8356 37.4103 81.8185 37.6467 81.7986 37.8802C81.7787 38.1137 81.756 38.3416 81.7276 38.5583C81.6992 38.7749 81.6651 38.9775 81.6253 39.1632C81.5855 39.3489 81.5343 39.5121 81.4747 39.6528C81.415 39.7935 81.3439 39.906 81.2644 39.9876C81.1819 40.0692 81.0882 40.1142 80.9802 40.1227C80.9148 40.1255 80.858 40.1255 80.8068 40.1171C80.7557 40.1114 80.7102 40.103 80.6676 40.0889V40.933C80.7585 40.964 80.8466 40.9865 80.929 40.9977C81.0143 41.0118 81.0938 41.0174 81.1734 41.0174C81.3809 41.0146 81.5628 40.9668 81.7162 40.8767C81.8725 40.7839 82.0061 40.6545 82.1141 40.4856C82.2249 40.3196 82.3187 40.1199 82.3926 39.892C82.4665 39.6641 82.529 39.4136 82.5802 39.1407C82.6313 38.8678 82.6711 38.5808 82.7024 38.2769C82.7336 37.9731 82.7621 37.6607 82.7876 37.3428H84.0296V40.9612H84.9986V36.479H81.8981ZM96.2271 40.964C96.5028 40.964 96.7585 40.9415 96.9944 40.8908C97.2303 40.843 97.4378 40.7614 97.614 40.646C97.793 40.5307 97.9294 40.3759 98.0289 40.1818C98.1283 39.9904 98.1795 39.7457 98.1824 39.4587C98.1795 39.1717 98.1312 38.9297 98.0289 38.7356C97.9294 38.5414 97.7902 38.3895 97.614 38.2741C97.4378 38.1588 97.2303 38.08 96.9944 38.0293C96.7585 37.9787 96.5028 37.9534 96.2271 37.9534H95.4882V36.479H94.5191V40.9612H96.2271V40.964ZM95.4882 38.7975H96.2726C96.3976 38.7975 96.517 38.8059 96.625 38.8256C96.7358 38.8453 96.8324 38.8819 96.9177 38.9297C97.0029 38.9803 97.0683 39.0451 97.1166 39.1323C97.1649 39.2167 97.1877 39.3264 97.1905 39.4558C97.1905 39.5853 97.1649 39.695 97.1166 39.7794C97.0683 39.8666 97.0029 39.9342 96.9177 39.982C96.8353 40.0326 96.7358 40.0664 96.625 40.0861C96.5141 40.1058 96.3976 40.1171 96.2726 40.1142H95.4882V38.7975Z" fill="white"/>
<path fill-rule="evenodd" clip-rule="evenodd" d="M61.1169 32.2303C60.2729 32.2275 59.4316 32.3147 58.6785 32.506C58.1073 32.6776 58.3517 32.4582 58.0846 31.9742C57.9084 31.6563 57.5418 31.5437 57.2519 31.7773C57.1979 31.8223 57.1666 31.8617 57.124 31.9208C56.9109 32.2303 56.9478 32.9168 57.3769 33.0378V33.5358H53.9183C53.7478 33.5358 53.6029 33.4598 53.5034 33.322C53.4068 33.1841 53.384 33.0237 53.4409 32.8633L57.9709 20.2582C58.0448 20.0556 58.2295 19.9233 58.4483 19.9233H61.0317V24.9795L60.1507 28.1477H62.0746L61.1936 24.9795V19.9262H63.777C63.9958 19.9262 64.1833 20.0556 64.2544 20.261L68.7844 32.8661C68.8413 33.0265 68.8185 33.1869 68.7219 33.3248C68.6224 33.4626 68.4775 33.5386 68.307 33.5386H64.8512V33.0406C65.2803 32.9196 65.3173 32.2331 65.1041 31.9236C65.0615 31.8617 65.0331 31.8223 64.9762 31.7801C64.6864 31.5494 64.3198 31.6591 64.1436 31.977C63.8764 32.461 64.1208 32.6804 63.5496 32.5088C62.7993 32.3147 61.9581 32.2275 61.1169 32.2303ZM58.5677 30.0891C58.2551 30.0891 57.9737 30.2635 57.8146 30.4436C57.7208 30.5505 57.6469 30.649 57.5872 30.7869C57.5475 30.8797 57.4679 31.1273 57.4679 31.2624C57.4679 31.4903 57.5816 31.3665 57.7919 31.4171C57.9368 31.4509 58.0647 31.5268 58.1869 31.6563C58.4313 31.9095 58.3659 32.1459 58.4512 32.2387C58.4654 32.2528 58.5848 32.2865 58.7496 32.2359C59.4004 32.0389 60.5457 31.9742 61.1169 31.9714C61.6881 31.9742 62.8334 32.0389 63.4842 32.2359C63.6462 32.2865 63.7684 32.2528 63.7798 32.2387C63.8651 32.1459 63.8025 31.9095 64.0441 31.6563C64.1663 31.5268 64.2942 31.4509 64.4391 31.4171C64.6494 31.3665 64.7631 31.4903 64.7631 31.2624C64.7631 31.1273 64.6864 30.8797 64.6437 30.7869C64.5812 30.6462 64.5073 30.5505 64.4135 30.4436C64.2572 30.2635 63.9759 30.0891 63.6604 30.0891C61.9666 30.0891 60.2672 30.0891 58.5677 30.0891Z" fill="white"/>
<path fill-rule="evenodd" clip-rule="evenodd" d="M97.4134 33.5358H101.943C102.176 33.5358 102.373 33.3867 102.432 33.1672L102.776 31.9236C102.839 31.7013 103.035 31.555 103.265 31.555H105.948C106.181 31.555 106.377 31.7041 106.436 31.9236L106.78 33.1672C106.84 33.3895 107.039 33.5358 107.269 33.5358H111.799C111.97 33.5358 112.117 33.4598 112.214 33.3248C112.311 33.1869 112.336 33.0237 112.277 32.8661L107.755 20.2582C107.681 20.0556 107.497 19.9233 107.278 19.9233C100.96 19.9233 108.264 19.9233 101.946 19.9233C101.727 19.9233 101.54 20.0528 101.469 20.2582L96.9388 32.8633C96.8819 33.0237 96.9047 33.1841 97.0041 33.322C97.0979 33.4626 97.2457 33.5358 97.4134 33.5358ZM104.612 24.6897L105.422 28.1505H103.802L104.612 24.6897Z" fill="white"/>
<path fill-rule="evenodd" clip-rule="evenodd" d="M15.1925 33.5358H19.7225C19.9556 33.5358 20.1517 33.3867 20.2113 33.1672L20.5552 31.9236C20.6149 31.7013 20.8138 31.555 21.044 31.555H23.7268C23.9598 31.555 24.1559 31.7041 24.2156 31.9236L24.5595 33.1672C24.6192 33.3895 24.8181 33.5358 25.0483 33.5358H29.5783C29.7489 33.5358 29.8966 33.4598 29.9933 33.3248C30.0927 33.1869 30.1155 33.0237 30.0558 32.8661L25.5314 20.2582C25.4575 20.0556 25.2728 19.9233 25.054 19.9233C18.7364 19.9233 26.0401 19.9233 19.7197 19.9233C19.5009 19.9233 19.3133 20.0528 19.2423 20.2582L14.7122 32.8633C14.6554 33.0237 14.6781 33.1841 14.7776 33.322C14.8742 33.4626 15.022 33.5358 15.1925 33.5358ZM22.3883 24.6897L23.1982 28.1505H21.5812L22.3883 24.6897Z" fill="white"/>
<path fill-rule="evenodd" clip-rule="evenodd" d="M33.4851 33.5359H37.9696C38.251 33.5359 38.4783 33.3108 38.4783 33.0323V24.3747C38.4783 24.0989 38.7057 23.871 38.987 23.871H40.8599C41.1384 23.871 41.3657 23.6459 41.3657 23.3674V20.4299C41.3657 20.1542 41.1384 19.9263 40.8599 19.9263H30.6005C30.322 19.9263 30.0918 20.1542 30.0918 20.4299V23.3702C30.0918 23.6487 30.3192 23.8738 30.6005 23.8738H32.4733C32.7518 23.8738 32.982 24.0989 32.982 24.3775V33.0351C32.9792 33.3108 33.2065 33.5359 33.4851 33.5359Z" fill="white"/>
<path fill-rule="evenodd" clip-rule="evenodd" d="M43.2362 33.5359H51.5687C51.8472 33.5359 52.0774 33.3108 52.0774 33.0323V30.0892C52.0774 29.8106 51.8472 29.5884 51.5687 29.5884H48.7353C48.4568 29.5884 48.2266 29.3604 48.2266 29.0847V20.4299C48.2266 20.1542 47.9992 19.9263 47.7179 19.9263H43.2333C42.952 19.9263 42.7246 20.1542 42.7246 20.4299V33.0351C42.7275 33.3108 42.9548 33.5359 43.2362 33.5359Z" fill="white"/>
<path fill-rule="evenodd" clip-rule="evenodd" d="M70.7434 33.5358H74.9522C75.2308 33.5358 75.461 33.3107 75.461 33.0322V27.0025L79.0276 33.2798C79.1185 33.4429 79.2805 33.5358 79.4709 33.5358H83.7537C84.0322 33.5358 84.2624 33.3107 84.2624 33.0322V20.427C84.2624 20.1512 84.035 19.9233 83.7537 19.9233H79.5448C79.2663 19.9233 79.0361 20.1512 79.0361 20.427V26.3216L75.5491 20.1794C75.4581 20.0162 75.2961 19.9233 75.1086 19.9233H70.749C70.4705 19.9233 70.2403 20.1512 70.2403 20.427V33.0322C70.2347 33.3107 70.4648 33.5358 70.7434 33.5358Z" fill="white"/>
<path fill-rule="evenodd" clip-rule="evenodd" d="M89.0289 33.5359H93.5106C93.7891 33.5359 94.0193 33.3108 94.0193 33.0323V24.3747C94.0193 24.0989 94.2467 23.871 94.5252 23.871H96.398C96.6765 23.871 96.9067 23.6459 96.9067 23.3674V20.4299C96.9067 20.1542 96.6794 19.9263 96.398 19.9263H86.1415C85.863 19.9263 85.6328 20.1542 85.6328 20.4299V23.3702C85.6328 23.6487 85.8602 23.8738 86.1415 23.8738H88.0143C88.2929 23.8738 88.523 24.0989 88.523 24.3775V33.0351C88.5202 33.3108 88.7504 33.5359 89.0289 33.5359Z" fill="white"/>
</g>
<defs>
<clipPath id="clip0">
<rect width="127" height="61" fill="white"/>
</clipPath>
</defs>
</svg>

<svg width="127" height="61" fill="none" xmlns="http://www.w3.org/2000/svg"><g clip-path="url(#clip0)"><path d="M126.939.276H.059V60.67h126.88V.276z" fill="#3B3B3B"/><path d="M126.939.276H.059V60.67h126.88V.276z" stroke="#1B1918" stroke-width=".425"/><path fill-rule="evenodd" clip-rule="evenodd" d="M32.696 36.479l-1.546 2.333-1.555-2.333h-.898v4.482h.97v-2.766l1.196 1.807h.563l1.196-1.798v2.76h.97v-4.482h-.896v-.003zm10.416 0v4.482h3.228v-.844h-2.26v-.999h2.024v-.838h-2.023v-.954h2.22v-.847h-3.19zm13.507 1.666v-.8h2.362v-.863h-3.33v4.482h1.966c.179 0 .352-.011.523-.04.167-.028.326-.073.471-.135.145-.061.273-.149.384-.256a1.12 1.12 0 00.259-.402c.062-.16.093-.352.093-.574 0-.22-.03-.41-.093-.571a1.07 1.07 0 00-.259-.402 1.268 1.268 0 00-.384-.256 1.985 1.985 0 00-.471-.138 2.92 2.92 0 00-.523-.04h-.998v-.005zm0 1.972v-1.125h1.003c.097 0 .188.005.276.02a.688.688 0 01.236.08c.068.04.125.097.162.172a.61.61 0 01.062.29.622.622 0 01-.062.293.414.414 0 01-.162.172.752.752 0 01-.236.081c-.088.014-.179.02-.276.02H56.62v-.003zm11.942-3.638v4.482h3.228v-.844h-2.256v-.999h2.023v-.838h-2.023v-.954h2.22v-.847H68.56zm13.337 0c-.017.228-.031.459-.048.695-.014.236-.031.473-.051.706-.02.234-.043.462-.071.678-.029.217-.063.42-.103.605-.04.186-.09.35-.15.49s-.131.253-.21.335a.443.443 0 01-.285.135.86.86 0 01-.173-.006.679.679 0 01-.14-.028v.844c.091.031.18.053.262.065.085.014.165.02.244.02.208-.003.39-.051.543-.141.157-.093.29-.223.398-.391.11-.166.205-.366.279-.594.073-.228.136-.478.187-.751.051-.273.091-.56.122-.864.032-.304.06-.616.086-.934h1.242v3.618h.969V36.48h-3.1zm14.33 4.485c.275 0 .53-.023.766-.073a1.77 1.77 0 00.62-.245c.179-.115.315-.27.415-.464.1-.192.15-.436.153-.723-.002-.287-.05-.53-.153-.723a1.19 1.19 0 00-.415-.462 1.817 1.817 0 00-.62-.245 3.657 3.657 0 00-.767-.076h-.739V36.48h-.969v4.482h1.708v.003zm-.74-2.166h.785c.125 0 .244.008.352.028.11.02.207.056.293.104.085.05.15.115.199.202a.681.681 0 01.073.324.65.65 0 01-.073.323.508.508 0 01-.2.203.839.839 0 01-.292.104c-.11.02-.227.031-.352.028h-.785v-1.316zM61.117 32.23a9.918 9.918 0 00-2.438.276c-.572.172-.327-.048-.594-.532-.177-.318-.543-.43-.833-.197a.692.692 0 00-.128.144c-.213.31-.176.996.253 1.117v.498h-3.459a.498.498 0 01-.415-.214.49.49 0 01-.062-.459l4.53-12.605a.502.502 0 01.477-.335h2.584v5.057l-.881 3.168h1.924l-.881-3.168v-5.054h2.583c.219 0 .406.13.477.335l4.53 12.605a.49.49 0 01-.062.459.498.498 0 01-.415.214h-3.456v-.498c.43-.121.466-.808.253-1.117a.522.522 0 00-.128-.144c-.29-.23-.656-.12-.832.197-.268.484-.023.703-.594.532-.75-.194-1.592-.282-2.433-.279zm-2.55-2.14a1.05 1.05 0 00-.752.354 1.25 1.25 0 00-.228.343c-.04.093-.12.34-.12.475 0 .228.115.104.325.155.145.034.273.11.395.24.244.253.179.489.264.582.014.014.134.047.299-.003.65-.197 1.796-.262 2.367-.265.571.003 1.716.068 2.367.265.162.05.284.017.296.003.085-.093.023-.33.264-.583a.775.775 0 01.395-.239c.21-.05.324.073.324-.155 0-.135-.077-.382-.12-.475a1.279 1.279 0 00-.23-.343 1.04 1.04 0 00-.753-.355h-5.092zm38.846 3.446h4.53a.5.5 0 00.489-.369l.344-1.243a.502.502 0 01.489-.369h2.683c.233 0 .429.15.488.369l.344 1.243a.5.5 0 00.489.369h4.53a.498.498 0 00.415-.211.484.484 0 00.063-.459l-4.522-12.608a.501.501 0 00-.477-.335h-5.332a.495.495 0 00-.477.335l-4.53 12.605a.483.483 0 00.065.459.48.48 0 00.41.214zm7.199-8.846l.81 3.46h-1.62l.81-3.46zm-89.419 8.846h4.53a.5.5 0 00.488-.369l.344-1.243a.498.498 0 01.489-.369h2.683a.5.5 0 01.489.369l.343 1.243c.06.222.26.369.49.369h4.53c.17 0 .318-.076.414-.211a.476.476 0 00.063-.459L25.53 20.258a.502.502 0 00-.477-.335H19.72a.495.495 0 00-.478.335l-4.53 12.605a.483.483 0 00.066.459c.096.14.244.214.415.214zm7.195-8.846l.81 3.46h-1.617l.807-3.46zm11.097 8.846h4.485a.506.506 0 00.508-.504v-8.657c0-.276.228-.504.509-.504h1.873a.505.505 0 00.506-.504V20.43a.507.507 0 00-.506-.504H30.6a.51.51 0 00-.508.504v2.94c0 .279.227.504.509.504h1.872c.279 0 .509.225.509.504v8.657a.5.5 0 00.503.5zm9.751 0h8.333a.508.508 0 00.508-.504V30.09c0-.278-.23-.5-.508-.5h-2.834a.51.51 0 01-.508-.504V20.43a.508.508 0 00-.51-.504h-4.484a.508.508 0 00-.508.504v12.605c.002.276.23.5.511.5zm27.507 0h4.21a.508.508 0 00.508-.504v-6.03l3.567 6.278c.09.163.252.256.443.256h4.283a.508.508 0 00.508-.504V20.427a.508.508 0 00-.508-.504h-4.21a.51.51 0 00-.508.504v5.895l-3.487-6.143a.492.492 0 00-.44-.256h-4.36a.51.51 0 00-.509.504v12.605a.5.5 0 00.503.504zm18.286 0h4.482a.508.508 0 00.508-.504v-8.657c0-.276.228-.504.506-.504h1.873a.508.508 0 00.509-.504V20.43a.507.507 0 00-.509-.504H86.141a.51.51 0 00-.508.504v2.94c0 .279.227.504.508.504h1.873c.279 0 .509.225.509.504v8.657c-.003.276.227.5.506.5z" fill="#fff"/></g><defs><clipPath id="clip0"><path fill="#fff" d="M0 0h127v61H0z"/></clipPath></defs></svg>
